svg/currency_ils.svg

<svg xmlns="http://www.w3.org/2000/svg" viewBox="0 0 24 24"><path d="M22 16a5 5 0 0 1-5 5H8V9h2v10h7a3 3 0 0 0 3-3V3h2zm-6-8v7h-2V8a3 3 0 0 0-3-3H4v16H2V3h9a5 5 0 0 1 5 5"/></svg>

<?xml version="1.0" encoding="UTF-8"?><!DOCTYPE svg PUBLIC "-//W3C//DTD SVG 1.1//EN" "http://www.w3.org/Graphics/SVG/1.1/DTD/svg11.dtd"><svg xmlns="http://www.w3.org/2000/svg" xmlns:xlink="http://www.w3.org/1999/xlink" version="1.1" id="mdi-currency-ils" width="24" height="24" viewBox="0 0 24 24"><path d="M22,16A5,5 0 0,1 17,21H8V9H10V19H17A3,3 0 0,0 20,16V3H22V16M16,8V15H14V8A3,3 0 0,0 11,5H4V21H2V3H11A5,5 0 0,1 16,8Z" /></svg>
